svg/600/outlined/brightness_4-fill.svg

<svg xmlns="http://www.w3.org/2000/svg" width="48" height="48" viewBox="0 -960 960 960"><path d="M492.826-295.609q77.044 0 130.935-53.891 53.891-53.891 53.891-131.5 0-77.609-53.891-131.5-53.891-53.891-130.935-53.891-17.174 0-34.065 3.652t-33.065 10.391q48.044 25.131 76.5 71.153Q530.652-535.174 530.652-481q0 54.174-28.456 100.195-28.456 46.022-76.5 71.587 16.174 6.305 33.065 9.957 16.891 3.652 34.065 3.652ZM481-13.173 343.739-145.87h-197.87v-197.87L10.173-480 145.87-616.261v-198.435h197.87L481-950.392l135.261 135.696h198.435v198.435L950.392-480 814.696-343.739v197.87H616.261L481-13.173Z"/></svg>

<svg xmlns="http://www.w3.org/2000/svg" width="48" height="48" viewBox="0 -960 960 960"><path d="M492.83-295.61q77.04 0 130.93-53.89T677.65-481q0-77.61-53.89-131.5t-130.93-53.89q-17.18 0-34.07 3.65t-33.06 10.39q48.04 25.13 76.5 71.15 28.45 46.03 28.45 100.2T502.2-380.8q-28.46 46.02-76.5 71.58 16.17 6.31 33.06 9.96 16.89 3.65 34.07 3.65ZM481-13.17l-137.26-132.7H145.87v-197.87L10.17-480l135.7-136.26V-814.7h197.87L481-950.39 616.26-814.7H814.7v198.44L950.39-480 814.7-343.74v197.87H616.26L481-13.17Z"/></svg>
